static/assets/website/brb/others/brand-header.svg

<svg width="180" height="21" viewBox="0 0 180 21" fill="none" xmlns="http://www.w3.org/2000/svg">
<path d="M0.690667 6.28H3.69133C4.928 6.28 5.908 6.98467 5.908 8.254C5.908 9.528 4.928 10.242 3.69133 10.242H1.848V13H0.690667V6.28ZM1.848 7.15267V9.374H3.46733C4.242 9.374 4.76467 8.98667 4.76467 8.26333C4.76467 7.53533 4.242 7.15267 3.46733 7.15267H1.848ZM8.42902 9.64C8.42902 7.484 9.72635 6.168 11.7144 6.168C13.7024 6.168 14.9997 7.484 14.9997 9.64C14.9997 11.796 13.7024 13.112 11.7144 13.112C9.72635 13.112 8.42902 11.796 8.42902 9.64ZM9.58169 9.64C9.58169 11.2547 10.403 12.2207 11.7144 12.2207C13.0257 12.2207 13.847 11.2547 13.847 9.64C13.847 8.02533 13.0257 7.05933 11.7144 7.05933C10.403 7.05933 9.58169 8.02533 9.58169 9.64ZM17.3611 6.28H18.4811L19.6478 11.5533H19.7411L21.1411 6.28H22.2564L23.6564 11.5533H23.7498L24.9164 6.28H26.0271V6.42L24.4778 13H23.0824L21.7384 7.98333H21.6451L20.3058 13H18.9104L17.3611 6.42V6.28ZM28.8401 6.28H33.6375V7.15267H29.9975V9.122H33.1708V9.99H29.9975V12.1273H33.7308V13H28.8401V6.28ZM39.1977 10.27H37.7977V13H36.6404V6.28H39.7204C41.0037 6.28 41.9977 6.87267 41.9977 8.128C41.9977 9.07067 41.4611 9.58867 40.7331 9.766V9.85933C41.4424 10.046 41.6711 10.4613 41.7551 11.2173L41.8297 11.9313C41.8811 12.37 41.9464 12.6127 42.1144 12.86V13H40.9337C40.7984 12.7387 40.7284 12.4913 40.6911 12.0107L40.6397 11.404C40.5744 10.606 40.2337 10.27 39.1977 10.27ZM37.7977 7.15267V9.402H39.5944C40.3597 9.402 40.8731 9.03333 40.8731 8.27733C40.8731 7.52133 40.3597 7.15267 39.5944 7.15267H37.7977ZM44.9693 6.28H49.7666V7.15267H46.1266V9.122H49.3V9.99H46.1266V12.1273H49.86V13H44.9693V6.28ZM52.7696 6.28H55.2289C57.2449 6.28 58.5142 7.57733 58.5142 9.64C58.5142 11.7027 57.2449 13 55.2289 13H52.7696V6.28ZM53.9269 7.15267V12.1273H55.2102C56.5589 12.1273 57.3569 11.18 57.3569 9.64C57.3569 8.1 56.5589 7.15267 55.2102 7.15267H53.9269ZM65.8545 6.28H68.9018C70.1245 6.28 71.0158 6.85867 71.0158 7.97867C71.0158 9.05667 70.2831 9.38333 69.9051 9.47667V9.57C70.3578 9.65867 71.2211 10.0133 71.2211 11.1613C71.2211 12.3653 70.2925 13 69.0091 13H65.8545V6.28ZM67.0118 7.13867V9.15467H68.6825C69.3731 9.15467 69.8958 8.84667 69.8865 8.14667C69.8865 7.45133 69.3638 7.13867 68.6825 7.13867H67.0118ZM67.0118 10.0133V12.1413H68.8038C69.5318 12.1413 70.0871 11.8147 70.0871 11.082C70.0871 10.3493 69.5318 10.0133 68.8038 10.0133H67.0118ZM73.2908 6.28H74.5228L76.3288 9.276H76.4221L78.2281 6.28H79.4508V6.42L76.9495 10.4147V13H75.7921V10.4147L73.2908 6.42V6.28Z" fill="#6A6A86"/>
<path d="M113.202 4.92H117.703C119.558 4.92 121.028 5.977 121.028 7.881C121.028 9.792 119.558 10.863 117.703 10.863H114.938V15H113.202V4.92ZM114.938 6.229V9.561H117.367C118.529 9.561 119.313 8.98 119.313 7.895C119.313 6.803 118.529 6.229 117.367 6.229H114.938ZM128.618 15H127.022V14.069H126.882C126.637 14.489 126.042 15.154 124.663 15.154C123.06 15.154 122.017 14.258 122.017 12.571V7.769H123.676V12.473C123.676 13.446 124.25 13.901 125.118 13.901C126.105 13.901 126.959 13.299 126.959 11.941V7.769H128.618V15ZM129.893 9.75C129.893 8.434 131.02 7.615 132.896 7.615C134.786 7.615 135.913 8.462 136.067 9.687V9.897H134.555C134.499 9.099 133.876 8.756 132.938 8.756C132.021 8.756 131.454 9.106 131.454 9.687C131.454 10.282 131.958 10.492 132.595 10.604L133.862 10.807C135.311 11.045 136.319 11.549 136.319 12.9C136.319 14.279 135.234 15.168 133.176 15.168C131.111 15.168 129.921 14.272 129.746 12.977V12.767H131.286C131.363 13.614 132.14 14.027 133.176 14.027C134.212 14.027 134.751 13.628 134.751 13.012C134.751 12.41 134.233 12.207 133.463 12.074L132.203 11.871C130.845 11.647 129.893 11.024 129.893 9.75ZM137.406 4.92H139.065V8.665H139.205C139.464 8.217 140.066 7.615 141.389 7.615C143.013 7.615 144.056 8.511 144.056 10.198V15H142.397V10.296C142.397 9.323 141.823 8.868 140.934 8.868C139.926 8.868 139.065 9.47 139.065 10.828V15H137.406V4.92ZM148.733 9.96C148.733 6.754 150.651 4.752 153.598 4.752C156.503 4.752 157.784 6.558 157.903 8.168V8.378H156.265C156.181 7.307 155.488 6.089 153.612 6.089C151.715 6.089 150.462 7.573 150.462 9.96C150.462 12.347 151.715 13.831 153.612 13.831C155.481 13.831 156.174 12.508 156.3 11.444H157.938V11.654C157.777 13.243 156.524 15.168 153.598 15.168C150.651 15.168 148.733 13.166 148.733 9.96ZM159.043 4.92H160.702V8.665H160.842C161.101 8.217 161.703 7.615 163.026 7.615C164.65 7.615 165.693 8.511 165.693 10.198V15H164.034V10.296C164.034 9.323 163.46 8.868 162.571 8.868C161.563 8.868 160.702 9.47 160.702 10.828V15H159.043V4.92ZM167.17 9.897V9.687C167.324 8.406 168.514 7.601 170.313 7.601C172.126 7.601 173.323 8.406 173.323 10.275V13.348C173.323 13.691 173.484 13.859 173.834 13.859H174.191V15H173.456C172.56 15 172.168 14.531 172.098 13.95H171.958C171.594 14.566 170.922 15.14 169.487 15.14C167.898 15.14 166.778 14.279 166.778 12.935C166.778 11.493 167.884 10.891 169.284 10.751L170.943 10.59C171.482 10.541 171.762 10.387 171.762 9.911C171.762 9.162 171.23 8.77 170.285 8.77C169.347 8.77 168.717 9.155 168.682 9.897H167.17ZM168.402 12.879C168.402 13.551 168.948 13.978 169.802 13.978C170.74 13.978 171.755 13.439 171.755 11.92V11.472H171.615C171.398 11.598 171.174 11.668 170.628 11.724L169.697 11.822C168.906 11.899 168.402 12.193 168.402 12.879ZM174.06 7.769H175.439V5.809H177.077V7.769H178.659V8.91H177.077V13.201C177.077 13.586 177.266 13.796 177.672 13.796H178.617V15H177.287C176.125 15 175.439 14.398 175.439 13.25V8.91H174.06V7.769Z" fill="white"/>
<path d="M99.8895 19.0097C100.393 19.0094 100.886 18.8679 101.308 18.6023C101.731 18.3368 102.064 17.9586 102.267 17.5139C102.291 17.4645 102.301 17.4102 102.296 17.3561C102.292 17.3019 102.274 17.2497 102.243 17.2042C102.212 17.1588 102.17 17.1216 102.12 17.0963C102.071 17.0709 102.015 17.0581 101.959 17.0591H97.8204C97.7642 17.0583 97.7087 17.0711 97.659 17.0966C97.6094 17.122 97.5672 17.1592 97.5365 17.2046C97.5057 17.25 97.4875 17.3022 97.4833 17.3563C97.4792 17.4104 97.4893 17.4646 97.5128 17.5139C97.7162 17.9585 98.0491 18.3366 98.471 18.6021C98.893 18.8677 99.3857 19.0092 99.8895 19.0097Z" fill="url(#paint0_linear_17133_24083)"/>
<path d="M106.242 14.6453C105.919 14.6453 105.609 14.5215 105.38 14.301C105.152 14.0805 105.023 13.7814 105.023 13.4696V9.198C105.023 8.09651 104.642 7.02651 103.941 6.15719C103.24 5.28786 102.259 4.6688 101.152 4.39789C101.111 4.09843 100.959 3.82352 100.724 3.62463C100.488 3.42573 100.185 3.3165 99.8723 3.31739C99.5593 3.31827 99.2573 3.42921 99.023 3.62943C98.7886 3.82965 98.6379 4.10542 98.5992 4.40511C97.6122 4.654 96.7244 5.18072 96.0489 5.91817C95.3733 6.65562 94.9406 7.5704 94.8059 8.54595C94.8059 8.57563 94.7976 8.6045 94.7943 8.63418C94.791 8.66385 94.7851 8.71438 94.7818 8.75448C94.7785 8.79458 94.7752 8.83468 94.7718 8.87398C94.7685 8.91328 94.7677 8.94055 94.766 8.97423C94.766 9.04241 94.761 9.10978 94.7602 9.17875V13.4688C94.7602 13.7791 94.6331 14.0768 94.4065 14.2971C94.1799 14.5173 93.8723 14.6422 93.5507 14.6445C93.4751 14.6437 93.4001 14.6572 93.33 14.6843C93.2599 14.7114 93.196 14.7516 93.1419 14.8025C93.0879 14.8535 93.0448 14.9142 93.0151 14.9812C92.9854 15.0482 92.9696 15.1202 92.9688 15.1931V15.1979C92.9688 15.3447 93.0292 15.4855 93.1368 15.5892C93.2443 15.693 93.3902 15.7513 93.5423 15.7513H106.242C106.39 15.7459 106.531 15.6852 106.634 15.5821C106.736 15.479 106.794 15.3415 106.794 15.1983C106.794 15.0552 106.736 14.9177 106.634 14.8145C106.531 14.7114 106.39 14.6508 106.242 14.6453Z" fill="url(#paint1_linear_17133_24083)"/>
<path d="M103.566 3.55904C104.267 3.70916 104.901 4.06917 105.378 4.58768C105.854 5.10619 106.149 5.7567 106.22 6.44633C106.223 6.48353 106.234 6.51973 106.252 6.55282C106.27 6.58591 106.294 6.61524 106.324 6.63911C106.354 6.66298 106.388 6.68092 106.425 6.69188C106.462 6.70284 106.501 6.70661 106.54 6.70297C106.617 6.69582 106.689 6.65953 106.739 6.60192C106.764 6.57323 106.782 6.54011 106.794 6.50446C106.805 6.46881 106.809 6.43134 106.806 6.39419C106.729 5.58165 106.385 4.81402 105.824 4.20308C105.264 3.59215 104.516 3.16983 103.689 2.99763C103.669 2.99356 103.648 2.99141 103.628 2.99121C103.555 2.99137 103.485 3.0174 103.431 3.0643C103.377 3.1112 103.343 3.17565 103.336 3.24528C103.328 3.31491 103.347 3.3848 103.39 3.44153C103.432 3.49826 103.495 3.53783 103.566 3.55263V3.55904Z" fill="url(#paint2_linear_17133_24083)"/>
<path d="M103.896 1.72771C104.988 1.96041 105.975 2.52012 106.717 3.32681C107.458 4.1335 107.917 5.14584 108.026 6.21904C108.029 6.25621 108.041 6.29235 108.058 6.32539C108.076 6.35843 108.101 6.38772 108.131 6.41157C108.16 6.43542 108.195 6.45336 108.232 6.46437C108.269 6.47537 108.308 6.47922 108.346 6.47569C108.424 6.46853 108.495 6.43224 108.546 6.37463C108.57 6.34594 108.589 6.31282 108.6 6.27718C108.612 6.24153 108.616 6.20405 108.612 6.16691C108.495 4.97218 107.987 3.84434 107.162 2.94683C106.336 2.04932 105.236 1.42877 104.02 1.17512C104 1.17105 103.979 1.1689 103.958 1.1687C103.886 1.16867 103.816 1.19456 103.762 1.24139C103.708 1.28822 103.673 1.35268 103.666 1.42237C103.658 1.49206 103.677 1.56204 103.72 1.61886C103.762 1.67567 103.825 1.7153 103.896 1.73012V1.72771Z" fill="url(#paint3_linear_17133_24083)"/>
<path d="M96.2116 3.55873C96.2825 3.54393 96.3453 3.50437 96.3878 3.44763C96.4304 3.3909 96.4497 3.32101 96.442 3.25138C96.4344 3.18175 96.4004 3.1173 96.3465 3.0704C96.2926 3.02351 96.2226 2.99748 96.1501 2.99731C96.1294 2.99751 96.1088 2.99966 96.0886 3.00373C95.2633 3.17546 94.5162 3.59648 93.9558 4.20567C93.3954 4.81485 93.0508 5.58051 92.972 6.39148C92.9684 6.42862 92.9724 6.46609 92.9838 6.50174C92.9952 6.53739 93.0138 6.57051 93.0385 6.5992C93.0631 6.62806 93.0934 6.65188 93.1277 6.66924C93.1619 6.6866 93.1995 6.69715 93.238 6.70026C93.2766 6.7039 93.3154 6.70013 93.3524 6.68916C93.3894 6.6782 93.4238 6.66027 93.4536 6.6364C93.4834 6.61253 93.5079 6.58319 93.5259 6.5501C93.5438 6.51701 93.5547 6.48081 93.5581 6.44361C93.6291 5.75441 93.9239 5.10444 94.4004 4.58641C94.8769 4.06837 95.5107 3.70872 96.2116 3.55873Z" fill="url(#paint4_linear_17133_24083)"/>
<path d="M95.8825 1.72792C95.9534 1.71312 96.0162 1.67355 96.0587 1.61682C96.1012 1.56009 96.1205 1.4902 96.1129 1.42057C96.1053 1.35094 96.0713 1.28649 96.0174 1.23959C95.9635 1.1927 95.8935 1.16667 95.8209 1.1665C95.8003 1.16665 95.7797 1.1688 95.7594 1.17292C94.5437 1.42657 93.4433 2.04712 92.6176 2.94463C91.792 3.84214 91.284 4.96998 91.1673 6.16471C91.1637 6.20185 91.1677 6.23933 91.1791 6.27498C91.1905 6.31062 91.2091 6.34375 91.2338 6.37243C91.2584 6.4013 91.2887 6.42512 91.323 6.44247C91.3572 6.45983 91.3948 6.47038 91.4333 6.47349C91.4718 6.47702 91.5107 6.47317 91.5476 6.46217C91.5846 6.45117 91.6189 6.43322 91.6487 6.40937C91.6784 6.38552 91.703 6.35623 91.721 6.32319C91.7389 6.29015 91.75 6.25401 91.7534 6.21684C91.8634 5.14422 92.3219 4.13256 93.0634 3.32638C93.805 2.5202 94.7916 1.96074 95.8825 1.72792Z" fill="url(#paint5_linear_17133_24083)"/>
<defs>
<linearGradient id="paint0_linear_17133_24083" x1="102.671" y1="12.8381" x2="99.4608" y2="18.4943" gradientUnits="userSpaceOnUse">
<stop stop-color="#FF94A6"/>
<stop offset="0.32" stop-color="#E03DC1"/>
<stop offset="1" stop-color="#8247E5"/>
</linearGradient>
<linearGradient id="paint1_linear_17133_24083" x1="104.294" y1="6.69007" x2="97.487" y2="16.7174" gradientUnits="userSpaceOnUse">
<stop stop-color="#FF94A6"/>
<stop offset="0.32" stop-color="#E03DC1"/>
<stop offset="1" stop-color="#8247E5"/>
</linearGradient>
<linearGradient id="paint2_linear_17133_24083" x1="110.049" y1="1.65745" x2="93.0834" y2="13.3302" gradientUnits="userSpaceOnUse">
<stop stop-color="#FF94A6"/>
<stop offset="0.32" stop-color="#E03DC1"/>
<stop offset="1" stop-color="#8247E5"/>
</linearGradient>
<linearGradient id="paint3_linear_17133_24083" x1="109.886" y1="1.42134" x2="92.9205" y2="13.0932" gradientUnits="userSpaceOnUse">
<stop stop-color="#FF94A6"/>
<stop offset="0.32" stop-color="#E03DC1"/>
<stop offset="1" stop-color="#8247E5"/>
</linearGradient>
<linearGradient id="paint4_linear_17133_24083" x1="106.808" y1="-3.05155" x2="89.8438" y2="8.62033" gradientUnits="userSpaceOnUse">
<stop stop-color="#FF94A6"/>
<stop offset="0.32" stop-color="#E03DC1"/>
<stop offset="1" stop-color="#8247E5"/>
</linearGradient>
<linearGradient id="paint5_linear_17133_24083" x1="105.957" y1="-4.28966" x2="88.9991" y2="7.37718" gradientUnits="userSpaceOnUse">
<stop stop-color="#FF94A6"/>
<stop offset="0.32" stop-color="#E03DC1"/>
<stop offset="1" stop-color="#8247E5"/>
</linearGradient>
</defs>
</svg>

<?xml version="1.0" encoding="utf-8"?>
<!-- Generator: Adobe Illustrator 26.0.1, SVG Export Plug-In . SVG Version: 6.00 Build 0)  -->
<svg version="1.1" id="Layer_1" xmlns="http://www.w3.org/2000/svg" xmlns:xlink="http://www.w3.org/1999/xlink" x="0px" y="0px"
	 viewBox="0 0 180 21" style="enable-background:new 0 0 180 21;" xml:space="preserve">
<style type="text/css">
	.st0{fill:#6A6A86;}
	.st1{fill:#FFFFFF;}
	.st2{fill:url(#SVGID_1_);}
	.st3{fill:url(#SVGID_00000112629069867950300040000015829379057265514173_);}
	.st4{fill:url(#SVGID_00000002365483274875845900000004442759403299581356_);}
	.st5{fill:url(#SVGID_00000031176437736488800430000006926914151244058280_);}
	.st6{fill:url(#SVGID_00000059306467842216324800000003470642289274016692_);}
	.st7{fill:url(#SVGID_00000075870820164607841380000014505538217558420892_);}
</style>
<path class="st0" d="M0.7,6.3h3c1.2,0,2.2,0.7,2.2,2c0,1.3-1,2-2.2,2H1.8V13H0.7V6.3z M1.8,7.2v2.2h1.6c0.8,0,1.3-0.4,1.3-1.1
	c0-0.7-0.5-1.1-1.3-1.1H1.8z M8.4,9.6c0-2.2,1.3-3.5,3.3-3.5c2,0,3.3,1.3,3.3,3.5s-1.3,3.5-3.3,3.5C9.7,13.1,8.4,11.8,8.4,9.6z
	 M9.6,9.6c0,1.6,0.8,2.6,2.1,2.6c1.3,0,2.1-1,2.1-2.6c0-1.6-0.8-2.6-2.1-2.6C10.4,7.1,9.6,8,9.6,9.6z M17.4,6.3h1.1l1.2,5.3h0.1
	l1.4-5.3h1.1l1.4,5.3h0.1l1.2-5.3H26v0.1L24.5,13h-1.4l-1.3-5h-0.1l-1.3,5h-1.4l-1.5-6.6V6.3z M28.8,6.3h4.8v0.9H30v2h3.2V10H30v2.1
	h3.7V13h-4.9V6.3z M39.2,10.3h-1.4V13h-1.2V6.3h3.1C41,6.3,42,6.9,42,8.1c0,0.9-0.5,1.5-1.3,1.6v0.1c0.7,0.2,0.9,0.6,1,1.4l0.1,0.7
	c0.1,0.4,0.1,0.7,0.3,0.9V13h-1.2c-0.1-0.3-0.2-0.5-0.2-1l-0.1-0.6C40.6,10.6,40.2,10.3,39.2,10.3z M37.8,7.2v2.2h1.8
	c0.8,0,1.3-0.4,1.3-1.1c0-0.8-0.5-1.1-1.3-1.1H37.8z M45,6.3h4.8v0.9h-3.6v2h3.2V10h-3.2v2.1h3.7V13H45V6.3z M52.8,6.3h2.5
	c2,0,3.3,1.3,3.3,3.4c0,2.1-1.3,3.4-3.3,3.4h-2.5V6.3z M53.9,7.2v5h1.3c1.3,0,2.1-0.9,2.1-2.5s-0.8-2.5-2.1-2.5H53.9z M65.9,6.3h3
	C70.1,6.3,71,6.9,71,8c0,1.1-0.7,1.4-1.1,1.5v0.1c0.5,0.1,1.3,0.4,1.3,1.6c0,1.2-0.9,1.8-2.2,1.8h-3.2V6.3z M67,7.1v2h1.7
	c0.7,0,1.2-0.3,1.2-1c0-0.7-0.5-1-1.2-1H67z M67,10v2.1h1.8c0.7,0,1.3-0.3,1.3-1.1c0-0.7-0.6-1.1-1.3-1.1H67z M73.3,6.3h1.2l1.8,3
	h0.1l1.8-3h1.2v0.1l-2.5,4V13h-1.2v-2.6l-2.5-4V6.3z"/>
<path class="st1" d="M113.2,4.9h4.5c1.9,0,3.3,1.1,3.3,3c0,1.9-1.5,3-3.3,3h-2.8V15h-1.7V4.9z M114.9,6.2v3.3h2.4
	c1.2,0,1.9-0.6,1.9-1.7c0-1.1-0.8-1.7-1.9-1.7H114.9z M128.6,15H127v-0.9h-0.1c-0.2,0.4-0.8,1.1-2.2,1.1c-1.6,0-2.6-0.9-2.6-2.6V7.8
	h1.7v4.7c0,1,0.6,1.4,1.4,1.4c1,0,1.8-0.6,1.8-2V7.8h1.7V15z M129.9,9.8c0-1.3,1.1-2.1,3-2.1c1.9,0,3,0.8,3.2,2.1v0.2h-1.5
	c-0.1-0.8-0.7-1.1-1.6-1.1c-0.9,0-1.5,0.4-1.5,0.9c0,0.6,0.5,0.8,1.1,0.9l1.3,0.2c1.4,0.2,2.5,0.7,2.5,2.1c0,1.4-1.1,2.3-3.1,2.3
	c-2.1,0-3.3-0.9-3.4-2.2v-0.2h1.5c0.1,0.8,0.9,1.3,1.9,1.3c1,0,1.6-0.4,1.6-1c0-0.6-0.5-0.8-1.3-0.9l-1.3-0.2
	C130.8,11.6,129.9,11,129.9,9.8z M137.4,4.9h1.7v3.7h0.1c0.3-0.4,0.9-1.1,2.2-1.1c1.6,0,2.7,0.9,2.7,2.6V15h-1.7v-4.7
	c0-1-0.6-1.4-1.5-1.4c-1,0-1.9,0.6-1.9,2V15h-1.7V4.9z M148.7,10c0-3.2,1.9-5.2,4.9-5.2c2.9,0,4.2,1.8,4.3,3.4v0.2h-1.6
	c-0.1-1.1-0.8-2.3-2.7-2.3c-1.9,0-3.1,1.5-3.1,3.9s1.3,3.9,3.1,3.9c1.9,0,2.6-1.3,2.7-2.4h1.6v0.2c-0.2,1.6-1.4,3.5-4.3,3.5
	C150.7,15.2,148.7,13.2,148.7,10z M159,4.9h1.7v3.7h0.1c0.3-0.4,0.9-1.1,2.2-1.1c1.6,0,2.7,0.9,2.7,2.6V15H164v-4.7
	c0-1-0.6-1.4-1.5-1.4c-1,0-1.9,0.6-1.9,2V15H159V4.9z M167.2,9.9V9.7c0.2-1.3,1.3-2.1,3.1-2.1c1.8,0,3,0.8,3,2.7v3.1
	c0,0.3,0.2,0.5,0.5,0.5h0.4V15h-0.7c-0.9,0-1.3-0.5-1.4-1.1H172c-0.4,0.6-1,1.2-2.5,1.2c-1.6,0-2.7-0.9-2.7-2.2c0-1.4,1.1-2,2.5-2.2
	l1.7-0.2c0.5,0,0.8-0.2,0.8-0.7c0-0.7-0.5-1.1-1.5-1.1c-0.9,0-1.6,0.4-1.6,1.1H167.2z M168.4,12.9c0,0.7,0.5,1.1,1.4,1.1
	c0.9,0,2-0.5,2-2.1v-0.4h-0.1c-0.2,0.1-0.4,0.2-1,0.3l-0.9,0.1C168.9,11.9,168.4,12.2,168.4,12.9z M174.1,7.8h1.4v-2h1.6v2h1.6v1.1
	h-1.6v4.3c0,0.4,0.2,0.6,0.6,0.6h0.9V15h-1.3c-1.2,0-1.8-0.6-1.8-1.8V8.9h-1.4V7.8z"/>
<linearGradient id="SVGID_1_" gradientUnits="userSpaceOnUse" x1="102.521" y1="9.247" x2="99.3108" y2="3.5908" gradientTransform="matrix(1 0 0 -1 0 22)">
	<stop  offset="0" style="stop-color:#FF94A6"/>
	<stop  offset="0.32" style="stop-color:#E03DC1"/>
	<stop  offset="1" style="stop-color:#8247E5"/>
</linearGradient>
<path class="st2" d="M99.9,19c0.5,0,1-0.1,1.4-0.4c0.4-0.3,0.8-0.6,1-1.1c0,0,0-0.1,0-0.2c0-0.1,0-0.1-0.1-0.2c0,0-0.1-0.1-0.1-0.1
	c0,0-0.1,0-0.2,0h-4.1c-0.1,0-0.1,0-0.2,0c0,0-0.1,0.1-0.1,0.1c0,0,0,0.1-0.1,0.2c0,0.1,0,0.1,0,0.2c0.2,0.4,0.5,0.8,1,1.1
	C98.9,18.9,99.4,19,99.9,19z"/>
<linearGradient id="SVGID_00000139973963344485380040000002620117627818000259_" gradientUnits="userSpaceOnUse" x1="104.1417" y1="15.4133" x2="97.3347" y2="5.386" gradientTransform="matrix(1 0 0 -1 0 22)">
	<stop  offset="0" style="stop-color:#FF94A6"/>
	<stop  offset="0.32" style="stop-color:#E03DC1"/>
	<stop  offset="1" style="stop-color:#8247E5"/>
</linearGradient>
<path style="fill:url(#SVGID_00000139973963344485380040000002620117627818000259_);" d="M106.2,14.6c-0.3,0-0.6-0.1-0.9-0.3
	c-0.2-0.2-0.4-0.5-0.4-0.8V9.2c0-1.1-0.4-2.2-1.1-3c-0.7-0.9-1.7-1.5-2.8-1.8c0-0.3-0.2-0.6-0.4-0.8c-0.2-0.2-0.5-0.3-0.9-0.3
	c-0.3,0-0.6,0.1-0.8,0.3c-0.2,0.2-0.4,0.5-0.4,0.8c-1,0.2-1.9,0.8-2.6,1.5c-0.7,0.7-1.1,1.7-1.2,2.6c0,0,0,0.1,0,0.1
	c0,0,0,0.1,0,0.1c0,0,0,0.1,0,0.1c0,0,0,0.1,0,0.1c0,0.1,0,0.1,0,0.2v4.3c0,0.3-0.1,0.6-0.4,0.8c-0.2,0.2-0.5,0.3-0.9,0.3
	c-0.1,0-0.2,0-0.2,0c-0.1,0-0.1,0.1-0.2,0.1C93.1,14.9,93,14.9,93,15c0,0.1,0,0.1,0,0.2v0c0,0.1,0.1,0.3,0.2,0.4
	c0.1,0.1,0.3,0.2,0.4,0.2h12.7c0.1,0,0.3-0.1,0.4-0.2c0.1-0.1,0.2-0.2,0.2-0.4c0-0.1-0.1-0.3-0.2-0.4
	C106.5,14.7,106.4,14.7,106.2,14.6z"/>
<linearGradient id="SVGID_00000152224404730851889340000014419750999725669560_" gradientUnits="userSpaceOnUse" x1="109.9392" y1="20.5022" x2="92.9736" y2="8.8294" gradientTransform="matrix(1 0 0 -1 0 22)">
	<stop  offset="0" style="stop-color:#FF94A6"/>
	<stop  offset="0.32" style="stop-color:#E03DC1"/>
	<stop  offset="1" style="stop-color:#8247E5"/>
</linearGradient>
<path style="fill:url(#SVGID_00000152224404730851889340000014419750999725669560_);" d="M103.6,3.6c0.7,0.2,1.3,0.5,1.8,1
	c0.5,0.5,0.8,1.2,0.8,1.9c0,0,0,0.1,0,0.1c0,0,0,0.1,0.1,0.1s0.1,0,0.1,0.1c0,0,0.1,0,0.1,0c0.1,0,0.1,0,0.2-0.1c0,0,0-0.1,0.1-0.1
	c0,0,0-0.1,0-0.1c-0.1-0.8-0.4-1.6-1-2.2c-0.6-0.6-1.3-1-2.1-1.2c0,0,0,0-0.1,0c-0.1,0-0.1,0-0.2,0.1s-0.1,0.1-0.1,0.2
	c0,0.1,0,0.1,0.1,0.2C103.4,3.5,103.5,3.5,103.6,3.6L103.6,3.6z"/>
<linearGradient id="SVGID_00000098910864759176883130000011896702232110594184_" gradientUnits="userSpaceOnUse" x1="109.8036" y1="20.6985" x2="92.8381" y2="9.0266" gradientTransform="matrix(1 0 0 -1 0 22)">
	<stop  offset="0" style="stop-color:#FF94A6"/>
	<stop  offset="0.32" style="stop-color:#E03DC1"/>
	<stop  offset="1" style="stop-color:#8247E5"/>
</linearGradient>
<path style="fill:url(#SVGID_00000098910864759176883130000011896702232110594184_);" d="M103.9,1.7c1.1,0.2,2.1,0.8,2.8,1.6
	c0.7,0.8,1.2,1.8,1.3,2.9c0,0,0,0.1,0,0.1c0,0,0,0.1,0.1,0.1c0,0,0.1,0,0.1,0.1c0,0,0.1,0,0.1,0c0.1,0,0.1,0,0.2-0.1
	c0,0,0-0.1,0.1-0.1c0,0,0-0.1,0-0.1c-0.1-1.2-0.6-2.3-1.4-3.2c-0.8-0.9-1.9-1.5-3.1-1.8c0,0,0,0-0.1,0c-0.1,0-0.1,0-0.2,0.1
	c-0.1,0-0.1,0.1-0.1,0.2c0,0.1,0,0.1,0.1,0.2C103.8,1.7,103.8,1.7,103.9,1.7L103.9,1.7z"/>
<linearGradient id="SVGID_00000178168669191969534460000001222175164372733884_" gradientUnits="userSpaceOnUse" x1="106.5269" y1="25.4601" x2="89.5627" y2="13.7882" gradientTransform="matrix(1 0 0 -1 0 22)">
	<stop  offset="0" style="stop-color:#FF94A6"/>
	<stop  offset="0.32" style="stop-color:#E03DC1"/>
	<stop  offset="1" style="stop-color:#8247E5"/>
</linearGradient>
<path style="fill:url(#SVGID_00000178168669191969534460000001222175164372733884_);" d="M96.2,3.6c0.1,0,0.1-0.1,0.2-0.1
	c0-0.1,0.1-0.1,0.1-0.2c0-0.1,0-0.1-0.1-0.2C96.3,3,96.2,3,96.2,3c0,0,0,0-0.1,0c-0.8,0.2-1.6,0.6-2.1,1.2c-0.6,0.6-0.9,1.4-1,2.2
	c0,0,0,0.1,0,0.1c0,0,0,0.1,0.1,0.1c0,0,0.1,0.1,0.1,0.1c0,0,0.1,0,0.1,0c0,0,0.1,0,0.1,0c0,0,0.1,0,0.1-0.1s0.1-0.1,0.1-0.1
	c0,0,0-0.1,0-0.1c0.1-0.7,0.4-1.3,0.8-1.9C94.9,4.1,95.5,3.7,96.2,3.6z"/>
<linearGradient id="SVGID_00000176763865069664398950000018264061113470791591_" gradientUnits="userSpaceOnUse" x1="105.6622" y1="26.7182" x2="88.7046" y2="15.0515" gradientTransform="matrix(1 0 0 -1 0 22)">
	<stop  offset="0" style="stop-color:#FF94A6"/>
	<stop  offset="0.32" style="stop-color:#E03DC1"/>
	<stop  offset="1" style="stop-color:#8247E5"/>
</linearGradient>
<path style="fill:url(#SVGID_00000176763865069664398950000018264061113470791591_);" d="M95.9,1.7c0.1,0,0.1-0.1,0.2-0.1
	c0-0.1,0.1-0.1,0.1-0.2s0-0.1-0.1-0.2c-0.1,0-0.1-0.1-0.2-0.1c0,0,0,0-0.1,0c-1.2,0.3-2.3,0.9-3.1,1.8c-0.8,0.9-1.3,2-1.5,3.2
	c0,0,0,0.1,0,0.1c0,0,0,0.1,0.1,0.1c0,0,0.1,0.1,0.1,0.1c0,0,0.1,0,0.1,0c0,0,0.1,0,0.1,0c0,0,0.1,0,0.1-0.1c0,0,0.1-0.1,0.1-0.1
	c0,0,0-0.1,0-0.1c0.1-1.1,0.6-2.1,1.3-2.9C93.8,2.5,94.8,2,95.9,1.7z"/>
</svg>
